X: 2
T:Young Collins, Bledington 1
M:2/2
L:1/8
A:Bledington
P:A(AB)4
K:G
P:A
|:GABc d2d2|c2e2 A2Bc|d2d2 e2dc|B2A2 G4:|
P:B
|:E2D2 EFG2|A2A2 G3 A|B2A2 Bcd2|e2e2 d4 |
  GABc d2d2|c2e2 A2Bc|d2d2 e2dc|B2A2 G4:|

